public/avatar/hat/21.svg

<svg xmlns:xlink="http://www.w3.org/1999/xlink" height="92.9" width="100.7" xmlns="http://www.w3.org/2000/svg"><use height="26.6" transform="translate(23.55 32.4)" width="28.7" xlink:href="#a"/><defs><use height="26.6" width="28.7" xlink:href="#b" id="a"/><g id="b"><path d="m-12.9 0-.85-3.2Q-14.3-5.85-10-9.45q4.2-3.65 11.45-3.3 7.25.35 10.6 4.85 3.35 4.5.6 9Q-.25 4.55-12.9 0" fill="#c00" fill-rule="evenodd" transform="translate(14.3 13.3)"/><path d="M11.05 5.3q2.05 5.5-1 5.85-7.1 3.15-20.3.25 6 1.65 3.25 1.1-1.7-.4-3.25-1.1-3.25 0-1.6-5.5l2.8.9q11 3.05 20.1-1.5" fill="#390" fill-rule="evenodd" transform="translate(14.3 13.3)"/><path d="M-12.9 0Q-.25 4.55 12.65 1.1q1.95 2.35-1.6 4.2-9.1 4.55-20.1 1.5l-2.8-.9-.5-.25-.2-.1q-1.5-2.8-.35-5.55" fill="#ff0" fill-rule="evenodd" transform="translate(14.3 13.3)"/><path d="M12.65 1.1q2.75-4.5-.6-9t-10.6-4.85Q-5.8-13.1-10-9.45q-4.3 3.6-3.75 6.25l.85 3.2q-1.15 2.75.35 5.55l.2.1.5.25q-1.65 5.5 1.6 5.5 13.2 2.9 20.3-.25 3.05-.35 1-5.85 3.55-1.85 1.6-4.2Z" fill="none" stroke="#3d1e00" stroke-linecap="round" stroke-linejoin="round" transform="translate(14.3 13.3)"/></g></defs></svg>

<?xml version="1.0" encoding="UTF-8" standalone="no"?>
<svg xmlns:xlink="http://www.w3.org/1999/xlink" height="92.9px" width="100.7px" xmlns="http://www.w3.org/2000/svg">
  <g transform="matrix(1.0, 0.0, 0.0, 1.0, 38.65, 49.75)">
    <use height="26.6" transform="matrix(1.0, 0.0, 0.0, 1.0, -15.1, -17.35)" width="28.7" xlink:href="#sprite0"/>
  </g>
  <defs>
    <g id="sprite0" transform="matrix(1.0, 0.0, 0.0, 1.0, 14.3, 13.3)">
      <use height="26.6" transform="matrix(1.0, 0.0, 0.0, 1.0, -14.3, -13.3)" width="28.7" xlink:href="#shape0"/>
    </g>
    <g id="shape0" transform="matrix(1.0, 0.0, 0.0, 1.0, 14.3, 13.3)">
      <path d="M-12.9 0.0 L-13.75 -3.2 Q-14.3 -5.85 -10.0 -9.45 -5.8 -13.1 1.45 -12.75 8.7 -12.4 12.05 -7.9 15.4 -3.4 12.65 1.1 -0.25 4.55 -12.9 0.0" fill="#cc0000" fill-rule="evenodd" stroke="none"/>
      <path d="M11.05 5.3 Q13.1 10.8 10.05 11.15 2.95 14.3 -10.25 11.4 -4.25 13.05 -7.0 12.5 -8.7 12.1 -10.25 11.4 -13.5 11.4 -11.85 5.9 L-9.05 6.8 Q1.95 9.85 11.05 5.3" fill="#339900" fill-rule="evenodd" stroke="none"/>
      <path d="M-12.9 0.0 Q-0.25 4.55 12.65 1.1 14.6 3.45 11.05 5.3 1.95 9.85 -9.05 6.8 L-11.85 5.9 -12.35 5.65 -12.55 5.55 Q-14.05 2.75 -12.9 0.0" fill="#ffff00" fill-rule="evenodd" stroke="none"/>
      <path d="M12.65 1.1 Q15.4 -3.4 12.05 -7.9 8.7 -12.4 1.45 -12.75 -5.8 -13.1 -10.0 -9.45 -14.3 -5.85 -13.75 -3.2 L-12.9 0.0 Q-14.05 2.75 -12.55 5.55 L-12.35 5.65 -11.85 5.9 Q-13.5 11.4 -10.25 11.4 2.95 14.3 10.05 11.15 13.1 10.8 11.05 5.3 14.6 3.45 12.65 1.1 Z" fill="none" stroke="#3d1e00" stroke-linecap="round" stroke-linejoin="round" stroke-width="1.0"/>
    </g>
  </defs>
</svg>
